X: 12
T: Gavotte t3.3 Des Montagnes Squiban3 orig Am
C: trad Breton, fr Didier Squiban
S: Ker Eon: Suite de Gavottes des Montagnes set by Didier Squiban
F: https://www.youtube.com/watch?v=inQ6gJiGtAs
W: https://www.youtube.com/watch?v=inQ6gJiGtAs
R: Gavotte orig Am
R:Hornpipe
Q: 1/4=165  "     should be swung"
G:Lark23
M: 2/4
L: 1/8
K: Emin
B2AB GFE2|FGED E2E2|B2AB GFE2|FGED E2E2||
B2AB GF EF/G/|ABcd BAB2|B2AB GFEF|GAFD E2E2|
B2AB GF EF/G/|ABce dcB2|A/B/A GA FEDE|FGED E2E2||

